suite-common/icons/assets/icons/table.svg

<svg xmlns="http://www.w3.org/2000/svg" viewBox="0 0 24 24">
  <path fill-rule="evenodd" d="M4.98 4.077c-.22.016-.438.048-.483.073-.119.065-.373.354-.423.482-.024.059-.052.434-.064.832l-.021.725.114.209a1.7 1.7 0 0 0 .303.379l.188.17 2.11.026c2.778.035 9.026.029 11.016-.011 1.804-.036 1.821-.039 2.027-.326.207-.289.265-.592.245-1.275-.019-.644-.073-.836-.3-1.063-.246-.246.203-.231-7.372-.24-3.817-.005-7.12.004-7.34.019m0 6c-.22.016-.438.048-.483.073-.119.065-.373.354-.423.482-.024.059-.052.434-.064.832l-.021.725.114.209a1.7 1.7 0 0 0 .303.379l.188.17 2.11.026c2.778.035 9.026.029 11.016-.011 1.804-.036 1.821-.039 2.027-.326.207-.289.265-.592.245-1.275-.019-.644-.073-.836-.3-1.063-.246-.246.203-.231-7.372-.24-3.817-.005-7.12.004-7.34.019m-.02 6.001c-.209.015-.418.048-.463.073-.118.064-.373.353-.423.481-.024.059-.052.434-.064.832l-.021.725.114.209a1.7 1.7 0 0 0 .303.379l.188.17 2.11.026c2.778.035 9.026.029 11.016-.011 1.804-.036 1.821-.039 2.027-.326.207-.289.265-.592.245-1.275-.019-.644-.073-.836-.3-1.063-.246-.246.205-.231-7.392-.24-3.828-.005-7.131.004-7.34.02"/>
</svg>

<svg xmlns="http://www.w3.org/2000/svg" viewBox="0 0 24 24"><path d="M4.980 4.077 C 4.760 4.093,4.542 4.125,4.497 4.150 C 4.378 4.215,4.124 4.504,4.074 4.632 C 4.050 4.691,4.022 5.066,4.010 5.464 L 3.989 6.189 4.103 6.398 C 4.166 6.514,4.302 6.684,4.406 6.777 L 4.594 6.947 6.704 6.973 C 9.482 7.008,15.730 7.002,17.720 6.962 C 19.524 6.926,19.541 6.923,19.747 6.636 C 19.954 6.347,20.012 6.044,19.992 5.361 C 19.973 4.717,19.919 4.525,19.692 4.298 C 19.446 4.052,19.895 4.067,12.320 4.058 C 8.503 4.053,5.200 4.062,4.980 4.077 M4.980 10.077 C 4.760 10.093,4.542 10.125,4.497 10.150 C 4.378 10.215,4.124 10.504,4.074 10.632 C 4.050 10.691,4.022 11.066,4.010 11.464 L 3.989 12.189 4.103 12.398 C 4.166 12.514,4.302 12.684,4.406 12.777 L 4.594 12.947 6.704 12.973 C 9.482 13.008,15.730 13.002,17.720 12.962 C 19.524 12.926,19.541 12.923,19.747 12.636 C 19.954 12.347,20.012 12.044,19.992 11.361 C 19.973 10.717,19.919 10.525,19.692 10.298 C 19.446 10.052,19.895 10.067,12.320 10.058 C 8.503 10.053,5.200 10.062,4.980 10.077 M4.960 16.078 C 4.751 16.093,4.542 16.126,4.497 16.151 C 4.379 16.215,4.124 16.504,4.074 16.632 C 4.050 16.691,4.022 17.066,4.010 17.464 L 3.989 18.189 4.103 18.398 C 4.166 18.514,4.302 18.684,4.406 18.777 L 4.594 18.947 6.704 18.973 C 9.482 19.008,15.730 19.002,17.720 18.962 C 19.524 18.926,19.541 18.923,19.747 18.636 C 19.954 18.347,20.012 18.044,19.992 17.361 C 19.973 16.717,19.919 16.525,19.692 16.298 C 19.446 16.052,19.897 16.067,12.300 16.058 C 8.472 16.053,5.169 16.062,4.960 16.078 " stroke="none" fill-rule="evenodd" fill="black"></path></svg>
